X:1     %Music
B:Broadwood, L, 1893, English County Songs, London, Leadenhall Press
S:Mrs Valsey, gardener's wife.
Z: Lucy Broadwood
T:My Bonnie, Bonnie Boy
M:3/4     %Meter
L:1/8     %
K:F
E2 |F2 E2 D2 |(d2 c2) d2 |A3 =B cA |(F2 E2)
w:I once lov'd a boy,_ a bon-nie, bon-nie boy_
(DE) |F2 F2 (FA) |(GF) (EF) G2 |A6- |A2 z2 
w:I_ lov'd him; I'll_ vow_ and_ pro-test;
E2 |F2 E2 D2 |d2 c2 (d=B) |A3 =B cA |(F2 E2)
w:I lov'd him so_ well, and so ve-ry, ve-ry well_ 
FG |A2 d2 (c=B) |A2 D2 E2 |(FG A2 =BG HA4) |                
w:That I built him a_ berth on my breast________
(3:2A=B)c| d2 (A=B) c2 |(=BA) G2 A2 |D6- |D4 z2 |]
w: That_ I built him_ a berth_ on my breast.